X:54
T:The three Maries - a little different
T:do.
Z:Jack Campin - http://www.campin.me.uk
S:Blaikie MS (NLS MS.1578) p18, no Blaikie #
M:6/8
L:1/8
V:1 midi program 1 74
V:2 midi program 1 46 bass middle = d transpose -24
Q:3/8=72
K:G
[V:1]    D2D D2D|G2 G A2B|c2e d2B|A3 G2E|D2D D2D|G2 G A2B|c2e d2B|A3 G2||
[V:2]    zgf gab|c'2b a2g|f3  g3 |d3 g2z|zgf gab|c'2b a2g|f3  g3 |d3 g2||
%
[V:1]  B|c2B c2d|e3   d2B|A2A d2c|B3 A2G|D2D D2D|G2 G A2B|c2e d2B|A3 G3|]
[V:2] =f|e2d c2B|c3   g3 |d3  f3 |g3 d2z|g3  f3 |e3   d2g|e2c B2G|d3 g3|]
W:Transcription (c) Jack Campin 2009, no mirroring or republication without permission

